svg/u1f512.svg

<svg viewBox="0 0 128 128" xmlns="http://www.w3.org/2000/svg">
  <defs/>
  <path d="M103.65,62.7 L103.64,62.7 C103.52,60.25 100.92,57.96 96.43,56.61 C86.82,53.72 76.16,52.03 64,51.93 C51.85,52.03 41.19,53.72 31.57,56.61 C27.08,57.96 24.5,60.25 24.37,62.7 L24.35,62.7 L24.35,63.02 C24.35,63.04 24.35,63.05 24.35,63.07 L24.35,112.78 C24.24,115.58 27.37,118.58 34.61,120.63 C42.09,122.75 52.21,124.12 63.99,124.12 C75.77,124.12 85.89,122.75 93.37,120.63 C100.96,118.48 104.03,115.29 103.59,112.38 L103.63,112.38 L103.63,62.7 Z" fill="#E2A610"/>
  <path d="M71.9,108.24 L67.41,97.66 C69.97,96.42 71.74,93.8 71.74,90.76 C71.74,86.52 68.3,83.09 64.07,83.09 C59.84,83.09 56.4,86.53 56.4,90.76 C56.4,93.61 57.96,96.1 60.27,97.42 L56.09,108.31 C55.56,109.69 56.58,111.16 58.05,111.16 L69.97,111.16 C71.47,111.16 72.48,109.62 71.9,108.24 Z" fill="#4E342E"/>
  <path d="M71.47,107.26 L56.48,107.26 L56.08,108.31 C55.55,109.69 56.57,111.16 58.04,111.16 L69.96,111.16 C71.47,111.16 72.48,109.62 71.89,108.24 L71.47,107.26 Z" fill="#9E740B"/>
  <path d="M60.95,95.4 C61.13,94.88 60.94,94.32 60.5,94 C59.9,93.56 59.09,92.78 58.58,91.54 C56.72,87.06 58.93,85.07 58.93,85.07 C57.37,86.47 56.39,88.5 56.39,90.76 C56.39,93.61 57.95,96.1 60.26,97.42 L60.95,95.4 Z" fill="#9E740B"/>
  <path d="M69.46,85.3 C69.46,85.3 71.66,89.72 69.14,92.55 C68.28,93.51 67.55,94.02 67.01,94.27 C66.48,94.52 66.24,95.15 66.49,95.68 L67.42,97.64 C69.98,96.4 71.75,93.78 71.75,90.74 C71.73,87.49 69.46,85.3 69.46,85.3 Z" fill="#9E740B"/>
  <path d="M94.74,55.95 C85.63,53.3 75.52,51.76 64,51.66 C52.48,51.75 42.37,53.3 33.26,55.94 C24.13,58.59 23.22,65.2 36.15,68.74 C43.24,70.68 52.84,71.93 64,71.93 C75.16,71.93 84.76,70.68 91.85,68.74 C104.78,65.21 103.87,58.59 94.74,55.95 Z" fill="#FDD835"/>
  <path d="M92.15,62.21 C92.15,62.21 91.78,63.93 86.93,63.93 C82.08,63.93 81.05,62.21 81.05,62.21 L81.05,40.16 C81.05,30.14 73.4,22 63.99,22 C54.58,22 46.93,30.15 46.93,40.16 L46.93,62.22 C46.93,62.22 44.82,63.94 40.98,63.94 C37.14,63.94 35.84,62.22 35.84,62.22 L35.84,40.16 C35.84,24.02 48.47,10.9 63.99,10.9 C79.51,10.9 92.14,24.03 92.14,40.16 L92.14,62.21 Z" fill="#84B0C1"/>
  <path d="M93.107,62.416 Q92.571,64.909 86.93,64.909 Q81.525,64.909 80.21,62.713 L80.071,62.481 L80.071,40.16 Q80.071,33.033 75.335,27.993 Q70.624,22.979 63.99,22.979 Q57.357,22.979 52.645,27.997 Q47.909,33.039 47.909,40.16 L47.909,62.685 L47.549,62.979 Q45.169,64.919 40.98,64.919 Q36.653,64.919 35.059,62.81 L34.861,62.548 L34.861,40.16 Q34.861,27.662 43.389,18.799 Q51.932,9.921 63.99,9.921 Q76.046,9.921 84.591,18.802 Q93.119,27.668 93.119,40.16 L93.119,61.231 L93.362,61.231 Z M91.161,62.033 L91.161,40.16 Q91.161,28.457 83.179,20.16 Q75.213,11.879 63.99,11.879 Q52.765,11.879 44.801,20.156 Q36.819,28.451 36.819,40.16 L36.819,61.856 Q37.926,62.961 40.98,62.961 Q44.143,62.961 45.951,61.73 L45.951,40.16 Q45.951,32.264 51.217,26.656 Q56.51,21.021 63.99,21.021 Q71.472,21.021 76.762,26.652 Q82.029,32.258 82.029,40.16 L82.029,61.895 Q82.973,62.951 86.93,62.951 Q89.684,62.951 90.846,62.236 Q91.087,62.087 91.161,62.033 Z" fill="#84B0C1"/>
  <path d="M51.31,21.56 C46.17,24.62 45.38,26.69 43.95,27.64 C42.89,28.34 41.48,27.78 42.4,25.35 C43.19,23.27 45.09,19.33 49.83,16.3 C57.99,11.08 65.03,11.32 64.65,15.31 C64.33,18.84 56.79,18.3 51.31,21.56 Z" fill="#B9E4EA"/>
</svg>

<svg viewBox="0 0 128 128" xmlns="http://www.w3.org/2000/svg">
  <g>
    <path d="M103.65,62.7h-0.01c-0.12-2.45-2.72-4.74-7.21-6.09c-9.61-2.89-20.27-4.58-32.43-4.68 c-12.15,0.1-22.81,1.79-32.43,4.68c-4.49,1.35-7.07,3.64-7.2,6.09h-0.02v0.32c0,0.02,0,0.03,0,0.05v49.71 c-0.11,2.8,3.02,5.8,10.26,7.85c7.48,2.12,17.6,3.49,29.38,3.49s21.9-1.37,29.38-3.49c7.59-2.15,10.66-5.34,10.22-8.25h0.04V62.7z" fill="#E2A610"/>
    <line fill="#E2A610" x1="24.35" x2="103.65" y1="63.43" y2="63.43"/>
    <g>
      <path d="M71.9,108.24l-4.49-10.58c2.56-1.24,4.33-3.86,4.33-6.9c0-4.24-3.44-7.67-7.67-7.67 s-7.67,3.44-7.67,7.67c0,2.85,1.56,5.34,3.87,6.66l-4.18,10.89c-0.53,1.38,0.49,2.85,1.96,2.85h11.92 C71.47,111.16,72.48,109.62,71.9,108.24z" fill="#4E342E"/>
      <path d="M71.47,107.26H56.48l-0.4,1.05c-0.53,1.38,0.49,2.85,1.96,2.85h11.92c1.51,0,2.52-1.54,1.93-2.92 L71.47,107.26z" fill="#9E740B"/>
      <path d="M60.95,95.4c0.18-0.52-0.01-1.08-0.45-1.4c-0.6-0.44-1.41-1.22-1.92-2.46 c-1.86-4.48,0.35-6.47,0.35-6.47c-1.56,1.4-2.54,3.43-2.54,5.69c0,2.85,1.56,5.34,3.87,6.66L60.95,95.4z" fill="#9E740B"/>
      <path d="M69.46,85.3c0,0,2.2,4.42-0.32,7.25c-0.86,0.96-1.59,1.47-2.13,1.72 c-0.53,0.25-0.77,0.88-0.52,1.41l0.93,1.96c2.56-1.24,4.33-3.86,4.33-6.9C71.73,87.49,69.46,85.3,69.46,85.3z" fill="#9E740B"/>
    </g>
    <path d="M94.74,55.95C85.63,53.3,75.52,51.76,64,51.66c-11.52,0.09-21.63,1.64-30.74,4.28 c-9.13,2.65-10.04,9.26,2.89,12.8c7.09,1.94,16.69,3.19,27.85,3.19s20.76-1.25,27.85-3.19C104.78,65.21,103.87,58.59,94.74,55.95z" fill="#FDD835"/>
    <g>
      <path d="M92.15,62.21c0,0-0.37,1.72-5.22,1.72 c-4.85,0-5.88-1.72-5.88-1.72V40.16c0-10.02-7.65-18.16-17.06-18.16s-17.06,8.15-17.06,18.16v22.06c0,0-2.11,1.72-5.95,1.72 s-5.14-1.72-5.14-1.72V40.16c0-16.14,12.63-29.26,28.15-29.26s28.15,13.13,28.15,29.26V62.21z" fill="#84B0C1" stroke="#84B0C1" stroke-width="1.9584" stroke-miterlimit="10"/>
      <path d="M51.31,21.56c-5.14,3.06-5.93,5.13-7.36,6.08c-1.06,0.7-2.47,0.14-1.55-2.29 c0.79-2.08,2.69-6.02,7.43-9.05c8.16-5.22,15.2-4.98,14.82-0.99C64.33,18.84,56.79,18.3,51.31,21.56z" fill="#B9E4EA"/>
    </g>
  </g>
</svg>
